X: 1
T: K\"arleksvalsen
T: Waltz of Love
C: Trad. ef. Anders Sahlstr\"om
R: waltz
S: http://www.nyckelharpa.org/archive/written-music/american-allspel-list/ 2022/9/21
Z: 2022 John Chambers <jc:trillian.mit.edu>
M: 3/4
L: 1/8
Q: 1/4=180
K: G
D2 |\
B2 A2 B2 | G3 G G2 | B2 A2 G2 | d3 d d2 |
d2 c2 B2 | c3 c c2 | c2 B2 A2 | B3 B B2 |
B2 A2 B2 | G3 G G2 | B2 A2 G2 | d4 dg |
(gf) (fe) ed | (dc) (cA) AF | (DF) (Ac) BA | G4 :|
|: D2 |\
G3 FGA | B3 ABc | d3 edc | (B2 G2) E2 |
c3 dcB | (A2 F2) D2 | B3 cBA | G2 (B,2 D2) |
G3 FGA | B3 ABc | d3 edc | (B2 G2) E2 |
c3 dcB | (AB) (AG) FE | (DF) (Ac) BA | G4 :|
